X: 1
T: The Bus Stop
R: reel
M: 4/4
L: 1/8
K: Amin
|:A2eA dAcB|ABcA BAGB|A2eA dAcA|(3Bcd e^fg edB|
A2eA dAcB|ABcA BAGD|(3EFG AcB AGE|A4 A4:|
|:a3g edcB|ABcd e2cB|Aaag edcA|de^fd e2cB|
Aa2g edcB|ABcd e2ed|cBAG EFGB|A4 A4:|